rospo-light/16x16/actions/snap-nodes-center.svg

<svg height="16" viewBox="0 0 16 16" width="16" xmlns="http://www.w3.org/2000/svg"><path d="m14 1v .5 12.5h-12.5-.5v1h .5 13.5v-13.5-.5zm-7.5 5.5v3h3v-3z" fill="#5c616c"/></svg>

<?xml version="1.0" encoding="UTF-8" standalone="no"?>
<svg xmlns="http://www.w3.org/2000/svg" width="22" height="22" viewBox="0 0 22 22">
 <defs>
  <style type="text/css" id="current-color-scheme">
   .ColorScheme-Text { color:#5c616c; } .ColorScheme-Highlight { color:#5294e2; }
  </style>
 </defs>
 <path style="fill:currentColor;opacity:1" class="ColorScheme-Text" transform="translate(3 3)" d="M 14 1 L 14 1.5 L 14 14 L 1.5 14 L 1 14 L 1 15 L 1.5 15 L 15 15 L 15 1.5 L 15 1 L 14 1 z M 6.5 6.5 L 6.5 9.5 L 9.5 9.5 L 9.5 6.5 L 6.5 6.5 z"/>
</svg>
